icons/nvidia.svg

<svg width="16" height="16" viewBox="0 0 16 16" fill="none" xmlns="http://www.w3.org/2000/svg">
<path fill-rule="evenodd" clip-rule="evenodd" d="M3.71943 4.30662C4.67705 3.69101 5.81653 3.25 7 3.25C8.63965 3.25 9.786 3.66428 10.666 4.25096C11.3134 4.68255 11.8214 5.22233 12.2175 5.64324C12.3307 5.76352 12.4348 5.8741 12.5303 5.96967L12.9651 6.40444L12.624 6.91603C12.6038 6.94639 12.5835 6.97693 12.563 7.00763C12.0919 7.71493 11.5642 8.50715 10.9331 9.11984C10.2546 9.77862 9.39872 10.2885 8.28571 10.2885C7.30658 10.2885 6.47779 10.0561 5.79937 9.60555C5.12355 9.15673 4.64972 8.52656 4.31974 7.81583L4.09899 7.34035L4.46967 6.96967C5.35287 6.08647 6.29079 5.75 7.1875 5.75C8.05022 5.75 8.80115 6.06205 9.33541 6.32918L8.66459 7.67082C8.19885 7.43795 7.69978 7.25 7.1875 7.25C6.82052 7.25 6.40421 7.34627 5.9517 7.66969C6.14364 7.95434 6.3682 8.18266 6.6292 8.35599C7.02221 8.61699 7.55056 8.78846 8.28571 8.78846C8.887 8.78846 9.38826 8.52908 9.88828 8.04362C10.2926 7.65108 10.657 7.15003 11.0405 6.58456C10.6673 6.1891 10.3229 5.825 9.83397 5.49904C9.214 5.08572 8.36035 4.75 7 4.75C6.18347 4.75 5.32295 5.05899 4.53057 5.56838C3.84078 6.01182 3.23906 6.5843 2.80376 7.16274C3.33072 9.3149 4.8601 11.011 7.21966 11.2539C9.43408 11.4819 10.8207 10.8031 11.7161 10.0325C12.4293 9.41873 12.8168 8.78586 13.1121 8.30369C13.213 8.13875 13.3032 7.99145 13.392 7.86858L14.608 8.74681C14.5812 8.78396 14.5394 8.8532 14.4826 8.94741C14.218 9.38634 13.6267 10.3672 12.6946 11.1694C11.5008 12.1969 9.70878 13.0181 7.06606 12.7461C3.78781 12.4086 1.8118 9.92538 1.26414 7.14494L1.20435 6.84139L1.37596 6.58397C1.93472 5.74584 2.7599 4.92346 3.71943 4.30662Z" fill="#76B900"/>
</svg>

<svg xmlns="http://www.w3.org/2000/svg" width="16" height="16" fill="none" viewBox="0 0 16 16"><path fill="#76B900" fill-rule="evenodd" d="M3.72 4.307C4.676 3.69 5.816 3.25 7 3.25c1.64 0 2.786.414 3.666 1.001.647.432 1.155.971 1.551 1.392q.17.181.313.327l.435.434-.341.512-.061.092c-.471.707-.999 1.5-1.63 2.112-.678.659-1.534 1.169-2.647 1.169-.98 0-1.808-.233-2.487-.683-.675-.45-1.15-1.08-1.48-1.79L4.1 7.34l.37-.37c.884-.884 1.822-1.22 2.718-1.22.863 0 1.614.312 2.148.58l-.67 1.34c-.466-.232-.965-.42-1.477-.42-.367 0-.784.096-1.236.42q.287.426.677.686c.393.261.922.432 1.657.432.601 0 1.102-.259 1.602-.744.405-.393.769-.894 1.152-1.46-.373-.395-.717-.759-1.206-1.085C9.214 5.086 8.36 4.75 7 4.75c-.817 0-1.677.309-2.47.818a6.8 6.8 0 0 0-1.726 1.595c.527 2.152 2.056 3.848 4.416 4.09 2.214.229 3.6-.45 4.496-1.22.713-.614 1.1-1.247 1.396-1.73.101-.164.191-.312.28-.434l1.216.878a4 4 0 0 0-.125.2c-.265.44-.856 1.42-1.788 2.222-1.194 1.028-2.986 1.85-5.629 1.577-3.278-.337-5.254-2.82-5.802-5.601l-.06-.304.172-.257a8.2 8.2 0 0 1 2.343-2.277" clip-rule="evenodd"/></svg>
